public/icons/share.svg

<svg width="14" height="14" viewBox="0 0 14 14" fill="none" xmlns="http://www.w3.org/2000/svg">
<path d="M12.7143 6.15183L10.0893 8.77683C9.96601 8.90012 9.79881 8.96938 9.62445 8.96938C9.4501 8.96938 9.2829 8.90012 9.15961 8.77683C9.03633 8.65355 8.96707 8.48634 8.96707 8.31199C8.96707 8.13764 9.03633 7.97043 9.15961 7.84715L10.6641 6.34379H9.02344C8.00477 6.34345 7.01488 6.68172 6.20945 7.3054C5.40402 7.92907 4.82873 8.80277 4.57406 9.7891C4.55252 9.87255 4.51475 9.95094 4.46291 10.0198C4.41107 10.0886 4.34617 10.1466 4.27193 10.1904C4.19769 10.2342 4.11555 10.2629 4.0302 10.2749C3.94486 10.2869 3.85798 10.282 3.77453 10.2605C3.69108 10.239 3.61269 10.2012 3.54384 10.1493C3.47498 10.0975 3.41701 10.0326 3.37324 9.95837C3.32947 9.88413 3.30074 9.80199 3.28871 9.71664C3.27668 9.6313 3.28158 9.54442 3.30313 9.46097C3.63003 8.19261 4.3695 7.069 5.40511 6.26705C6.44071 5.4651 7.71363 5.03036 9.02344 5.03128H10.6641L9.1607 3.52628C9.03742 3.403 8.96816 3.23579 8.96816 3.06144C8.96816 2.88709 9.03742 2.71988 9.1607 2.5966C9.28399 2.47331 9.4512 2.40405 9.62555 2.40405C9.7999 2.40405 9.96711 2.47331 10.0904 2.5966L12.7154 5.2216C12.7766 5.28265 12.8251 5.35518 12.8582 5.43504C12.8913 5.5149 12.9082 5.60051 12.9081 5.68694C12.908 5.77338 12.8909 5.85894 12.8576 5.93872C12.8243 6.0185 12.7756 6.09093 12.7143 6.15183ZM10.5 11.1563H2.40625V4.81253C2.40625 4.63849 2.33711 4.47157 2.21404 4.3485C2.09097 4.22543 1.92405 4.15628 1.75 4.15628C1.57595 4.15628 1.40903 4.22543 1.28596 4.3485C1.16289 4.47157 1.09375 4.63849 1.09375 4.81253V11.375C1.09375 11.6651 1.20898 11.9433 1.4141 12.1484C1.61922 12.3536 1.89742 12.4688 2.1875 12.4688H10.5C10.674 12.4688 10.841 12.3996 10.964 12.2766C11.0871 12.1535 11.1563 11.9866 11.1563 11.8125C11.1563 11.6385 11.0871 11.4716 10.964 11.3485C10.841 11.2254 10.674 11.1563 10.5 11.1563Z" fill="#C9DDFF"/>
</svg>

<?xml version="1.0" encoding="utf-8"?>
<!-- Generator: Adobe Illustrator 27.3.1, SVG Export Plug-In . SVG Version: 6.00 Build 0)  -->
<svg version="1.1" id="Layer_1" xmlns="http://www.w3.org/2000/svg" xmlns:xlink="http://www.w3.org/1999/xlink" x="0px" y="0px"
	 viewBox="0 0 14 14" style="enable-background:new 0 0 14 14;" xml:space="preserve">
<style type="text/css">
	.st0{fill:#EFF0F1;}
</style>
<path class="st0" d="M12.7,6.2l-2.6,2.6C10,8.9,9.8,9,9.6,9C9.5,9,9.3,8.9,9.2,8.8C9,8.7,9,8.5,9,8.3S9,8,9.2,7.8l1.5-1.5H9
	c-1,0-2,0.3-2.8,1C5.4,7.9,4.8,8.8,4.6,9.8c0,0.1-0.1,0.2-0.1,0.2c-0.1,0.1-0.1,0.1-0.2,0.2c-0.1,0-0.2,0.1-0.2,0.1
	c-0.1,0-0.2,0-0.3,0c-0.1,0-0.2-0.1-0.2-0.1C3.5,10.1,3.4,10,3.4,10c0-0.1-0.1-0.2-0.1-0.2c0-0.1,0-0.2,0-0.3
	c0.3-1.3,1.1-2.4,2.1-3.2C6.4,5.5,7.7,5,9,5h1.6L9.2,3.5C9,3.4,9,3.2,9,3.1S9,2.7,9.2,2.6c0.1-0.1,0.3-0.2,0.5-0.2
	c0.2,0,0.3,0.1,0.5,0.2l2.6,2.6c0.1,0.1,0.1,0.1,0.1,0.2s0.1,0.2,0,0.3c0,0.1,0,0.2-0.1,0.3C12.8,6,12.8,6.1,12.7,6.2z M10.5,11.2
	H2.4V4.8c0-0.2-0.1-0.3-0.2-0.5C2.1,4.2,1.9,4.2,1.8,4.2S1.4,4.2,1.3,4.3C1.2,4.5,1.1,4.6,1.1,4.8v6.6c0,0.3,0.1,0.6,0.3,0.8
	c0.2,0.2,0.5,0.3,0.8,0.3h8.3c0.2,0,0.3-0.1,0.5-0.2c0.1-0.1,0.2-0.3,0.2-0.5c0-0.2-0.1-0.3-0.2-0.5C10.8,11.2,10.7,11.2,10.5,11.2z
	"/>
</svg>
